Sources/FrostedUI/Resources/Icons.xcassets/dollarSign20.imageset/dollar-sign-20.svg

<svg width="20" height="20" viewBox="0 0 20 20" fill="none" xmlns="http://www.w3.org/2000/svg" data-fui-icon="true">
  <path
    d="M15.5105 12.2494C15.6334 12.2494 15.7449 12.324 15.784 12.4406C15.9235 12.8573 15.9963 13.3182 15.9963 13.8255C15.9959 15.7945 14.2761 17.9622 11.0371 18.3426C10.8822 18.3607 10.7622 18.4901 10.7622 18.6461V19.2461C10.762 19.6599 10.4259 19.9956 10.0122 19.9961C9.59809 19.9961 9.26237 19.6602 9.26224 19.2461V18.6488C9.26224 18.4925 9.14204 18.363 8.98679 18.3453C7.49649 18.1748 6.40497 17.6366 5.62082 16.964C4.6803 16.1569 4.2345 15.202 4.03789 14.6018C3.90906 14.2082 4.12377 13.7845 4.51736 13.6556C4.91083 13.5271 5.33475 13.7416 5.4636 14.1351C5.60271 14.5596 5.92371 15.2473 6.59733 15.8254C7.10503 16.2609 7.84585 16.6614 8.9336 16.8238C9.10897 16.85 9.26224 16.7107 9.26224 16.5334V12.5494C9.26224 12.3837 9.39655 12.2494 9.56223 12.2494H10.4622C10.6279 12.2494 10.7622 12.3837 10.7622 12.5494V16.5332C10.7622 16.7106 10.9163 16.8498 11.0918 16.8235C13.5546 16.4545 14.496 14.8407 14.4964 13.8255C14.4964 13.227 14.3604 12.8016 14.1604 12.4828C14.0998 12.3861 14.1641 12.2494 14.2783 12.2494H15.5105ZM10.0122 0C10.426 0.000454772 10.7622 0.336051 10.7622 0.749963V1.34536C10.7622 1.50203 10.8836 1.6318 11.0393 1.64884C14.3762 2.0139 15.7146 4.13564 15.9797 5.37669C16.0658 5.78137 15.8071 6.18056 15.4026 6.26727C14.9977 6.35369 14.5986 6.09495 14.512 5.69015C14.382 5.08164 13.5969 3.52093 11.0902 3.16708C10.9153 3.14238 10.7622 3.28135 10.7622 3.45803V8.94956C10.7622 9.11524 10.8965 9.24955 11.0622 9.24955H19.25C19.6638 9.25008 20 9.58564 20 9.99951C20 10.4134 19.6638 10.7489 19.25 10.7495H0.75094C0.336747 10.7495 0.000976515 10.4137 0.000976515 9.99951C0.000976515 9.58532 0.336747 9.24955 0.75094 9.24955H4.57448C4.86074 9.24955 5.00447 8.86046 4.82483 8.63757C4.74225 8.53511 4.66458 8.42677 4.59255 8.31209C4.22032 7.71918 4.02819 7.00766 4.02812 6.17157C4.02812 4.20216 5.74915 2.03435 8.98735 1.65358C9.14221 1.63537 9.26224 1.50601 9.26224 1.35008V0.749963C9.26224 0.33577 9.59801 0 10.0122 0ZM9.26224 3.46196C9.26224 3.28457 9.10804 3.14534 8.93261 3.17167C6.46939 3.5413 5.52805 5.15709 5.52805 6.17157C5.52812 6.77015 5.66287 7.1955 5.86299 7.51428C6.06523 7.83614 6.36614 8.10007 6.77408 8.32381C7.35205 8.64061 8.07826 8.84412 8.90453 9.01924C9.08946 9.05843 9.26224 8.91626 9.26224 8.72723V3.46196Z"
    fill="currentColor"
  />
</svg>

<svg xmlns="http://www.w3.org/2000/svg" width="20" height="20" fill="none" data-fui-icon="true" viewBox="0 0 20 20"><path fill="currentColor" d="M15.51 12.25c.123 0 .235.074.274.19q.211.625.212 1.386c0 1.968-1.72 4.136-4.959 4.517a.31.31 0 0 0-.275.303v.6a.751.751 0 0 1-1.5 0v-.597a.31.31 0 0 0-.275-.304c-1.49-.17-2.582-.708-3.366-1.381a5.33 5.33 0 0 1-1.583-2.362.75.75 0 0 1 1.426-.467 3.83 3.83 0 0 0 1.133 1.69c.508.436 1.249.836 2.337.999a.29.29 0 0 0 .328-.29v-3.985a.3.3 0 0 1 .3-.3h.9a.3.3 0 0 1 .3.3v3.984a.29.29 0 0 0 .33.29c2.463-.369 3.404-1.982 3.404-2.998 0-.598-.136-1.023-.336-1.342-.06-.097.004-.234.118-.234zM10.013 0a.75.75 0 0 1 .75.75v.595c0 .157.122.287.277.304 3.337.365 4.676 2.487 4.94 3.728a.751.751 0 0 1-1.468.313c-.129-.608-.914-2.17-3.42-2.523a.29.29 0 0 0-.329.291V8.95a.3.3 0 0 0 .3.3h8.188a.75.75 0 0 1 0 1.5H.75a.75.75 0 0 1 0-1.5h3.824c.287 0 .43-.39.25-.612a3 3 0 0 1-.231-.326c-.373-.593-.565-1.304-.565-2.14 0-1.97 1.721-4.138 4.96-4.518a.31.31 0 0 0 .274-.304v-.6a.75.75 0 0 1 .75-.75m-.75 3.462a.29.29 0 0 0-.33-.29c-2.463.37-3.404 1.985-3.404 3 0 .598.135 1.024.335 1.342.202.322.503.586.911.81.578.317 1.304.52 2.13.695a.297.297 0 0 0 .358-.292z"/></svg>
